X:1
T:Asylum, CM
T:Asylum, CM
T:William Horsley (1774-1858)
T:Public Domain Courtesy of the Cyber Hymnal™
C:William Horsley (1774-1858)
Z:Public Domain
Z:Courtesy of the Cyber Hymnal™
%%score ( 1 2 ) ( 3 4 )
L:1/8
Q:1/4=110
M:3/4
K:G
V:1 treble 
V:2 treble 
V:3 bass 
V:4 bass 
V:1
 [DG]2 | (B2 A2) [DG]2 | (E2 F2) [B,G]2 | ([EA]2 [DB]2) [Dc]2 | (c2 B2) [DB]2 | [DA]4 (D>E) | %6
 [DF]4 [^CE]2 | D4 [FA]2 | (A2 B2) [Ec]2 | (d2 cB) (A^G) | [EA]4 [EB]2 | [Ec]4 [Dc]2 | %12
 ([DB]2 [CA]2) [B,G]2 | (EA [DG]2) [DF]2 | [DG]4 |] %15
V:2
 x2 | D4 x2 | C4 x2 | x6 | D4 x2 | x4 D2 | x6 | D4 x2 | E4 x2 | D4 F2 | x6 | x6 | x6 | E2 x4 | %14
 x4 |] %15
V:3
 [G,,B,]2 | ([G,,G,]2 [A,,F,]2) [B,,G,]2 | (CB, [D,A,]2) [E,G,]2 | G,4 [D,F,]2 | [G,,G,]4 G,2 | %5
 [F,A,]4 [G,B,]2 | A,4 [A,,G,]2 | [D,F,]4 [D,A,]2 | ([C,A,]2 [B,,^G,]2) [A,,A,]2 | %9
 (A,2 G,2) (A,B,) | [C,C]4 [E,^G,]2 | A,4 [F,A,]2 | G,2 [D,F,]2 [E,G,]2 | [C,C]2 [D,B,]2 [D,A,]2 | %14
 [G,,B,]4 |] %15
V:4
 x2 | x6 | C,2 x4 | (C,2 D,2) x2 | x4 G,2 | x6 | A,4 x2 | x6 | x6 | F,4 D,2 | x6 | A,4 x2 | %12
 G,2 x4 | x6 | x4 |] %15

